!!!!SEGMENT: pl-wtm--r-284-m_moniuszko-stanislaw--domine.krn
!!!cenid: 18xx:2976
!!!COM: Moniuszko, Stanisław
!!!COM-rismID:
!!!CDT: 1819/05/05-1872/06/04
!!!CNT: Polish
!!!OTL: Domine
!!!PDT: 1868
!!!AGN: Sacred
!!!SMS-siglum: PL-Wtm
!!!SMS-shelfmark: R 284/M
!!!SMS-shelfwork: W
!!!SMS-variant:
!!!SMS-altvar:
!!!NIFC-rismSourceID: 1001096489
!!!NIFC-islandoraID:
!!!URL-pdf-islandora:
!!!URL-scan:
!!!ONB-nifc:
!!!OMD: andantino un poco agitato.
!!!AIN: 1 piano 1 vox
!!!key:
**kern	**kern	**kern	**text
*group2	*group2	*group1	*
*part2	*part2	*part1	*part1
*staff3	*staff2	*staff1	*staff1
*Ipiano	*Ipiano	*Ivox	*
*I"[Piano]	*I"[Piano]	*I"[Voce]	*
*clefF4	*clefG2	*clefG2	*
*k[b-e-a-]	*k[b-e-a-]	*k[b-e-a-]	*
*c:	*c:	*c:	*
*M3/4	*M3/4	*M3/4	*
=1	=1	=1	=1
*2\right	*2\right	*2\right	*
!LO:TX:t=P:problem=all\right&colon; global	!LO:TX:t=P:problem=all\right&colon; global	!LO:TX:t=P:problem=all\right&colon; global	!
8EE-</L	2.ryy	2.r	.
8GG</	.	.	.
8C</	.	.	.
8E-</	.	.	.
8G</	.	.	.
8c</J	.	.	.
=2	=2	=2	=2
!!mixed beam:problem
!LO:TX:t=P:problem=mixed beam	!	!	!
8GG/L	2.ryy	2.r	.
8C/	.	.	.
8E-/	.	.	.
8G/	.	.	.
8c>\	.	.	.
!LO:TX:t=P:problem=all\right&colon; global	!	!	!
8e->\J	.	.	.
=3	=3	=3	=3
*^	*	*	*
!	!	!LO:N:vis=2.	!	!
!!mixed beam:problem
*	*2\right	*	*	*
!LO:N:vis=2.	!	!LO:TX:t=P:problem=mixed beam	!	!
8C/L	2.C\	2.ryy	4g/	Do-
8E-/	.	.	.	.
8G/	.	.	8a-/L	-mi-
8c/	.	.	8g/J	.
8e->\	.	.	8f#X/L	-ne,
[>8g>\J	.	.	8g/J	.
=4	=4	=4	=4	=4
!!mixed beam:problem
!LO:TX:t=P:problem=mixed beam	!	!	!	!
!LO:N:vis=2.	!	!	!	!
8BBnX/L	2.BBnX\	2.g/_>	4.g/	Do-
8C/	.	.	.	.
8E-/	.	.	.	.
8G/	.	.	8g/	-mi-
8c>\	.	.	4g/	-ne
8e->\J	.	.	.	.
!!LO:LB:g=original
=5	=5	=5	=5	=5
!!mixed beam:problem
!LO:TX:t=P:problem=mixed beam	!	!	!	!
!LO:N:vis=2.	!	!LO:TX:t=P:problem=ligatura kończy się od dołu, zaczyna od góry	!	!
8BB-X/L	2.BB-X\	2.g/]	4g/	ne
8C/	.	.	.	.
8E-/	.	.	8f#X/	in
8G/	.	.	8g/	fu-
8c>\	.	.	8a-/	-ro-
8e->\J	.	.	8g/	-re
=6	=6	=6	=6	=6
*	*	*	*2\right	*
!!mixed beam:problem
!LO:TX:t=P:problem=mixed beam	!	!	!	!
!LO:N:vis=2.	!	!	!	!
8AAn/L	2.AAn\	2.f#X/	2cc\	tu-
8C/	.	.	.	.
8E-/	.	.	.	.
8Any/	.	.	.	.
8c>\	.	.	4cc\	-o,
8e->\J	.	.	.	.
=7	=7	=7	=7	=7
!LO:N:vis=2.	!	!	!	!
8AA-X/L	2.AA-X\	2.fn/	4cc\	ne
8C/	.	.	.	.
8E-/	.	.	8bn\	in
8F/ 8Dn	.	.	8cc\	fu-
4qqE-	.	.	.	.
8G/	.	.	8dd\	-ro-
8c>\J	.	.	8ee-\	-re
=8	=8	=8	=8	=8
!!mixed beam:problem
!LO:TX:t=P:problem=mixed beam	!	!	!	!
8e->\L	2EE-\ 2E-	2g/	2ee-\	tu-
8B-/	.	.	.	.
8G/	.	.	.	.
8B-/	.	.	.	.
8A-/	4FF\	4f/	4dd\	-o
8d>\J	.	.	.	.
=9	=9	=9	=9	=9
!!mixed beam:problem
!LO:TX:t=P:problem=mixed beam	!	!	!	!
8c>\L	2.GG\	2e-/	4.cc\	ar-
8G/	.	.	.	.
8A-/	.	.	.	.
8G/	.	.	8cc\	-gu-
8F/	.	4d/	4bn\	-as
8G/J	.	.	.	.
!!LO:LB:g=original
=10	=10	=10	=10	=10
!!mixed beam:problem
!LO:TX:t=P:problem=mixed beam	!	!	!	!
8E-/L	2.C\	2.c/	4cc\	me.
8G/	.	.	.	.
8c>\	.	.	4r	.
8e->\	.	.	.	.
8g>\	.	.	4r	.
8cc>\J	.	.	.	.
*v	*v	*	*	*
=11	=11	=11	=11
*	*^	*	*
!!mixed beam:problem
!	!	!LO:TX:t=P:problem=mixed beam	!	!
2.G\	2.b-/	8e-\L	4ee-\	Ne-
.	.	8B-</	.	.
.	.	8f\	8dd\	-que
.	.	8e-\	8ee-\	in
.	.	8dn\	8.ff\	i-
.	.	8e-\J	.	.
.	.	.	16ee-\	-ra
=12	=12	=12	=12	=12
2.F\	2.a-/	8e-\L	2ee-\	tu-
.	.	8c\	.	.
.	.	8dn\	.	.
.	.	8e-\	.	.
.	.	8f\	4a-/	-a
.	.	8e-\J	.	.
=13	=13	=13	=13	=13
2.BB-/	2.f/	8d\L	4a-/	cor-
.	.	8e-\	.	.
.	.	8d\	4.b-/	-ri-
.	.	8c\	.	.
.	.	8d\	.	.
.	.	8B-\J	8f/	-pias
=14	=14	=14	=14	=14
2.E-\	8g/	(<4d\	2g/	me,
.	4g/	.	.	.
.	.	4e-\	.	.
.	4g/	.	.	.
.	.	4Bn</)	4r	.
!	!LO:TX:t=P:problem=brak początku ligatury	!	!	!
.	[>8g/	.	.	.
*	*v	*v	*	*
!!LO:LB:g=original
=15	=15	=15	=15
*^	*	*	*
4.c/	(4E-\	8g/L]	4g/	ne-
.	.	8g/J	.	.
.	4D\	4f#X/	8an/	-que
8G/	.	.	8b-\	in
!!mixed beam:problem
!LO:TX:t=P:problem=mixed beam	!	!	!	!
8d>\L	4GG\)	4fn/	8cc\	i-
8G/J	.	.	8dd\	-ra
=16	=16	=16	=16	=16
(<8Bn/L	2CC\ 2GG	(>4f/	(4.ff\	tu-
8d/	.	.	.	.
8c/	.	4e-/)	.	.
8G/	.	.	8ee-\)	.
8E-/	8E-\L	4g/	8cc\	-a
8C/J	8C\J	.	8an/	cor-
*v	*v	*	*	*
=17	=17	=17	=17
*	*^	*	*
(>8D\L)	8B-/L 8g	4ryy	2dd\	-ri-
8G\J	8d/	.	.	.
4B-\	8g/	8ryy	.	.
.	8d/	[<4.d\	.	.
8An\L	8f#X/	.	8cc\L	-pias
8G\J	8g/J	.	8b-\J	.
*	*v	*v	*	*
=18	=18	=18	=18
2.F#X\) 2.d>	8an/	4an/	me
!!mixed beam:problem
!	!LO:TX:t=P:problem=mixed beam	!	!
.	(>8An</L	.	.
.	8c</	4r	.
.	8a\	.	.
.	8c</	4r	.
.	8A</J)	.	.
!!LO:PB:g=original
=19	=19	=19	=19
*	*^	*	*
2.F\	8r	2.d\	4g/	Do-
!!mixed beam:problem
!	!LO:TX:t=P:problem=mixed beam	!	!	!
.	8G</L	.	.	.
.	8Bn</	.	8a-X/L	-mi-
.	8g\	.	8g/J	.
.	8B</	.	8f#X/L	-ne,
.	8G</J	.	8g/J	.
*	*v	*v	*	*
=20	=20	=20	=20
*^	*	*	*
2.c#X/	2.En\	8r	4.g/	do-
!!mixed beam:problem
!	!	!LO:TX:t=P:problem=mixed beam	!	!
.	.	8G</L	.	.
.	.	8B-X</	.	.
.	.	8g\	8g/	-mi-
.	.	8B-</	4g/	-ne
.	.	8G</J	.	.
=21	=21	=21	=21	=21
2.cn/	2.E-X\	8r	4g/	ne
.	.	8G</L	.	.
.	.	8An</	8f#X/	in
.	.	8g\	8g/	fu-
.	.	8An</	8an/	-ro-
.	.	8G</J	8g/	-re
=22	=22	=22	=22	=22
2.c/	2.D\ 2.F#X	8r	2cc\	tu-
!!mixed beam:problem
!	!	!LO:TX:t=P:problem=mixed beam	!	!
.	.	8An</L	.	.
.	.	8c</	.	.
.	.	8an\	.	.
.	.	8c</	4cc\	-o
.	.	8A</J	.	.
=23	=23	=23	=23	=23
*	*	*^	*	*
*	*	*	*2\right	*	*
!	!	!LO:N:vis=2	!	!	!
2.F/	2.AA-\	8c/L	2c\	4cc\	ne-
.	.	8f/	.	.	.
.	.	8cc/	.	8bn\	-que
.	.	8e-/	.	8cc\	in
.	.	8d/	8d\L	8dd\	i-
.	.	8b-/J	8e-\J	8ee-\	-ra
*v	*v	*	*	*	*
!!LO:LB:g=original
=24	=24	=24	=24	=24
2EE-/ 2BB- 2E-	8g/L 8b-	4e-\	2gg\	tu-
.	8B-/	.	.	.
.	8e-/ 8g	4ryy	.	.
.	8b-/	.	.	.
4FF/ 4F	8f/ 8a-	4ryy	4ff\	-a
.	8c/J	.	.	.
*	*v	*v	*	*
=25	=25	=25	=25
*^	*	*	*
4G/	2.GG\	8e-/L 8g	2ee-\	ar
.	.	8c/	.	.
4r	.	8c/ 8e-	.	.
.	.	8G/	.	.
4r	.	8d/ 8f	4dd\	guas
.	.	8G/J	.	.
=26	=26	=26	=26	=26
8C/L	4C\	8c/ 8e-	8cc\	me.
8G/J	.	4c/ 4e-	8ee-\	Ne
8GG/L	4GG\	.	8dd\	de-
8G/J	.	4c/ 4e-	8cc\	-re-
8C/L	4C\	.	8b-/	-lin-
8G/J	.	8c/ 8e-	8a-/	-guas
=27	=27	=27	=27	=27
8BBn/L	4BBn\	(>4d/ 4f	2g/	me,
8G/J	.	.	.	.
!!mixed beam:problem
!LO:TX:t=P:problem=mixed beam	!	!	!	!
8GG/L	4GG\	8c/L 8e-	.	.
8G\	.	8d/ 8f	.	.
8GG/	4GG\	8e-/ 8g	4r	.
8G\J	.	8Bn/J) 8d	.	.
!!LO:LB:g=original
=28	=28	=28	=28	=28
8C/L	4C\	8c/ 8e-	4ee-\	Do-
8G/J	.	4c/ 4e-	.	.
8F#X/L	4C\	.	8dd\	-mi-
[<8G/J	.	4c/ 4e-	8cc\	-ne,
8G/L]	4C\	.	8b-/	De-
[<8A-X/J	.	8c/ 8e-	8a-/	-us
=29	=29	=29	=29	=29
8A-/]	4C\	8d/ 8f	2g/	me-
4An/	.	4d/ 4f	.	.
.	4C\	.	.	.
4B-/	.	4d/ 4f	.	.
.	4C\	.	4g/	-us,
8Bn/	.	8d/ 8f	.	.
=30	=30	=30	=30	=30
4c/	4C\	4e-/	8.g/	ne
.	.	.	16g/	diſ-
4r	4ryy	4r	8an/	-ceſ-
.	.	.	8bn\	-se-
4r	4ryy	4r	8cc\	-ris
.	.	.	8dd\	a
*v	*v	*	*	*
=31	=31	=31	=31
(>4c\	8r	2.ee-\	me
.	8e-/ 8g	.	.
4Bn\	8r	.	.
.	8e-/ 8g	.	.
4B-X\	8r	.	.
.	8e-/ 8g	.	.
!!LO:LB:g=original
=32	=32	=32	=32
*	*^	*	*
4A-\	4cc/	8r	8.cc\	ne
.	.	8c\ 8e-	.	.
.	.	.	16bn\	dis-
4G\	4b-/	8r	8cc\	-ceſ-
.	.	8c\ 8e-	8dd\	-se-
4F\	4a-/	8r	8ee-\	-ris
.	.	8c\ 8f	8ff\	a
=33	=33	=33	=33	=33
4E-\	4g/	8r	2.gg\	me
.	.	8e-\ 8g	.	.
4D\	4b-/	8r	.	.
.	.	8e-\ 8g	.	.
!LO:TX:t=P:problem=łuk frazowy rozpoczyna się od góry, a kończy od dołu	!	!	!	!
4C\)	4ee-/	8r	.	.
*ped	*	*	*	*
.	.	8e-\ 8g	.	.
*	*v	*v	*	*
=34	=34	=34	=34
*^	*	*	*
!LO:N:vis=2.	!	!	!	!
8FF/L	2.FF\	2d-X/ 2f 2a- 2dd-X	(>2aa-\	Do-
(<8AA-/	.	.	.	.
8D-X/	.	.	.	.
8F/	.	.	.	.
8A-/	.	4f/	8ff\L	-mi-
8d-X/J)	.	.	8dd-X\J)	-ne
=35	=35	=35	=35	=35
*	*	*^	*	*
(4AA-/	4AA-	(>4f#X/	2.c\ 2.e-	2cc\	De-
4GG/	4GG	4g/	.	.	.
4FF#X/	4FF#	4a-/)	.	4cc\	-us
=36	=36	=36	=36	=36	=36
[2.GG/)	4GG	8g/L	2.e-\	[<2.g/	me-
.	.	8ee-/	.	.	.
.	4r	8dd/	.	.	.
.	.	8cc/	.	.	.
.	4r	8b-/	.	.	.
.	.	8a-/J	.	.	.
*v	*v	*	*	*	*
=37	=37	=37	=37	=37
!	!LO:N:vis=1.	!	!	!
2.GG/]	2.g/	8Bn\L 8d	2.g/]	.
.	.	8c\J 8e-	.	.
.	.	4d\ 4f	.	.
.	.	8c\L 8e-	.	.
.	.	8B\J 8d	.	.
*	*v	*v	*	*
!!LO:LB:g=original
=38	=38	=38	=38
*^	*	*	*
4C/	[<2.CC	8c/ 8e-	4g/	-us!
.	.	4c/ 4e-	.	.
4G\	.	.	4r	.
.	.	4c/ 4e-	.	.
4E-\	.	.	4r	.
.	.	[>8c/ [>8e-	.	.
=39	=39	=39	=39	=39
4C/	4CC]	8c/] 8e-]	2.r	.
.	.	4c/ 4e-	.	.
4EE-/	4EE-	.	.	.
.	.	4c/ 4g	.	.
4GG/	4GG	.	.	.
.	.	8c/ 8e-	.	.
=40	=40	=40	=40	=40
!LO:TX:b:t=SMoniuszko 21/11.  68.	!	!	!	!
!LO:N:vis=1.	!LO:N:vis=2	!	!	!
2.C 2.E- 2.G	2.CC/	2.c;>/	2.r;>	.
*v	*v	*	*	*
!!LO:PB:g=original
==	==	==	==
*-	*-	*-	*-
!!!system-decoration: [(g1,g2)]
!!!RDF**kern: > = above
!!!RDF**kern: < = below
!!!ENC: Marcin Jachim
!!!END: 2021-08-17
!!!EED: Jędrzej Mróz
!!!ESR: 2021-09-15
